img/docicons/doc.svg

<svg width="40" height="48" viewBox="0 0 40 48" fill="none" xmlns="http://www.w3.org/2000/svg"><path d="M35 48H5c-2.756 0-5-2.244-5-5V5c0-2.756 2.244-5 5-5h30c2.756 0 5 2.244 5 5v38c0 2.756-2.244 5-5 5zM5 2C3.346 2 2 3.346 2 5v38c0 1.654 1.346 3 3 3h30c1.654 0 3-1.346 3-3V5c0-1.654-1.346-3-3-3H5z" fill="#F7A707"/><path d="M33 40h-4c-1.654 0-3-1.346-3-3v-6c0-1.654 1.346-3 3-3h4a1 1 0 010 2h-4a1 1 0 00-1 1v6a1 1 0 001 1h4a1 1 0 010 2zm-22 0H7a1 1 0 01-1-1V29a1 1 0 011-1h4c1.654 0 3 1.346 3 3v6c0 1.654-1.346 3-3 3zm-3-2h3a1 1 0 001-1v-6a1 1 0 00-1-1H8v8zm13 2h-2c-1.654 0-3-1.346-3-3v-6c0-1.654 1.346-3 3-3h2c1.654 0 3 1.346 3 3v6c0 1.654-1.346 3-3 3zm-2-10a1 1 0 00-1 1v6a1 1 0 001 1h2a1 1 0 001-1v-6a1 1 0 00-1-1h-2z" fill="#F7A707"/></svg>

<svg width="40" height="48" viewBox="0 0 40 48" fill="none" xmlns="http://www.w3.org/2000/svg">
<path d="M35 48H5C2.244 48 0 45.756 0 43V5C0 2.244 2.244 0 5 0H35C37.756 0 40 2.244 40 5V43C40 45.756 37.756 48 35 48ZM5 2C3.346 2 2 3.346 2 5V43C2 44.654 3.346 46 5 46H35C36.654 46 38 44.654 38 43V5C38 3.346 36.654 2 35 2H5Z" fill="#F7A707"/>
<path d="M33 40H29C27.346 40 26 38.654 26 37V31C26 29.346 27.346 28 29 28H33C33.552 28 34 28.448 34 29C34 29.552 33.552 30 33 30H29C28.448 30 28 30.448 28 31V37C28 37.552 28.448 38 29 38H33C33.552 38 34 38.448 34 39C34 39.552 33.552 40 33 40Z" fill="#F7A707"/>
<path d="M11 40H7C6.448 40 6 39.552 6 39V29C6 28.448 6.448 28 7 28H11C12.654 28 14 29.346 14 31V37C14 38.654 12.654 40 11 40ZM8 38H11C11.552 38 12 37.552 12 37V31C12 30.448 11.552 30 11 30H8V38Z" fill="#F7A707"/>
<path d="M21 40H19C17.346 40 16 38.654 16 37V31C16 29.346 17.346 28 19 28H21C22.654 28 24 29.346 24 31V37C24 38.654 22.654 40 21 40ZM19 30C18.448 30 18 30.448 18 31V37C18 37.552 18.448 38 19 38H21C21.552 38 22 37.552 22 37V31C22 30.448 21.552 30 21 30H19Z" fill="#F7A707"/>
</svg>
